X:006
T:Doxologia
M:4/4
L:1/4
K:G
V:S
"G" G | G F "Bm" E D | "Am7" G "D7" A "G" HB
w:A Deus, su- pre- mo ben- fei- tor,
"G" B | B B "D7" A "Em" G | "Am7" c B "D" HA
w:An- jos e ho- mens deem lou- vor.
"Em" G | "D" A "G" B "D" A "G/B" G | "C" E "D7" F "G" HG
w:A Deus o Fi- lho,~a Deus o Pai,
"G" d | B G "D" A/2A/2 "Am" c | "G/D" B "D7" A "G" HG || "C" G2 "G" G2 |]
w:E~a Deus Es- pí- ri- to, gló- ria dai. A- mém.